src/lib/packages/icons/src/assets/line/eye-slash.svg

<svg width="24" height="24" viewBox="0 0 24 24" fill="none" xmlns="http://www.w3.org/2000/svg">
<path d="M21.229 13.8679C19.913 16.0639 16.96 19.75 12 19.75C11.037 19.75 10.0861 19.604 9.17408 19.315C8.77908 19.19 8.56105 18.769 8.68605 18.374C8.81005 17.978 9.23496 17.762 9.62696 17.885C10.392 18.127 11.19 18.25 12 18.25C16.222 18.25 18.7901 15.02 19.9441 13.094C20.3521 12.418 20.3521 11.581 19.9461 10.907C19.6001 10.324 19.177 9.72798 18.72 9.17898C18.455 8.85998 18.4991 8.38707 18.8181 8.12307C19.1381 7.85807 19.61 7.90199 19.875 8.21999C20.381 8.82899 20.8509 9.49199 21.2329 10.137C21.9259 11.284 21.926 12.7159 21.229 13.8679ZM10.063 14.9981L3.53004 21.531C3.38404 21.677 3.19201 21.751 3.00001 21.751C2.80801 21.751 2.61598 21.678 2.46998 21.531C2.17698 21.238 2.17698 20.763 2.46998 20.47L5.64503 17.2949C4.31703 16.1499 3.35205 14.837 2.76905 13.866C2.07505 12.716 2.07501 11.2841 2.77101 10.1331C4.08701 7.93708 7.04001 4.251 12 4.251C13.835 4.251 15.565 4.76994 17.155 5.78494L20.469 2.47097C20.762 2.17797 21.237 2.17797 21.53 2.47097C21.823 2.76397 21.823 3.23901 21.53 3.53201L10.065 14.9971C10.065 14.9971 10.065 14.9981 10.064 14.9981C10.063 14.9981 10.063 14.9971 10.063 14.9981ZM9.6089 13.3311L13.3311 9.60891C12.9291 9.38191 12.478 9.251 12 9.251C10.484 9.251 9.25099 10.484 9.25099 12.001C9.25099 12.478 9.3829 12.9291 9.6089 13.3311ZM6.70704 16.232L8.51905 14.4199C8.02405 13.7169 7.75099 12.882 7.75099 11.999C7.75099 9.65605 9.65701 7.74905 12 7.74905C12.884 7.74905 13.7179 8.02211 14.4209 8.51711L16.052 6.88601C14.787 6.14501 13.432 5.74807 12 5.74807C7.77801 5.74807 5.20992 8.97808 4.05592 10.9041C3.64792 11.5801 3.64797 12.4171 4.05397 13.0911C4.59097 13.9881 5.48304 15.201 6.70704 16.232ZM14.708 12.4351C14.528 13.5951 13.594 14.53 12.436 14.709C12.027 14.772 11.7461 15.155 11.8091 15.564C11.8671 15.935 12.1861 16.2 12.5491 16.2C12.5871 16.2 12.6261 16.1969 12.6641 16.1909C14.4911 15.9089 15.908 14.4921 16.19 12.6641C16.253 12.2541 15.973 11.8721 15.563 11.8081C15.163 11.7471 14.771 12.0251 14.708 12.4351Z" fill="currentColor"/>
</svg>

<svg xmlns="http://www.w3.org/2000/svg" width="24" height="24" fill="none"><path fill="currentColor" d="M21.229 13.868C19.913 16.064 16.96 19.75 12 19.75a9.343 9.343 0 0 1-2.826-.435.75.75 0 1 1 .453-1.43A7.856 7.856 0 0 0 12 18.25c4.222 0 6.79-3.23 7.944-5.156a2.111 2.111 0 0 0 .002-2.187 13.598 13.598 0 0 0-1.226-1.728.751.751 0 0 1 1.155-.959 15.1 15.1 0 0 1 1.358 1.917 3.599 3.599 0 0 1-.004 3.73Zm-11.166 1.13L3.53 21.531a.748.748 0 0 1-1.06 0 .75.75 0 0 1 0-1.061l3.175-3.175a14.48 14.48 0 0 1-2.876-3.429 3.602 3.602 0 0 1 .002-3.733C4.087 7.937 7.04 4.251 12 4.251c1.835 0 3.565.519 5.155 1.534l3.314-3.314a.75.75 0 1 1 1.061 1.061L10.065 14.997l-.001.001h-.001Zm-.454-1.667L13.33 9.61A2.695 2.695 0 0 0 12 9.25 2.752 2.752 0 0 0 9.251 12c0 .477.132.928.358 1.33Zm-2.902 2.901 1.812-1.812a4.184 4.184 0 0 1-.768-2.421A4.255 4.255 0 0 1 12 7.749c.884 0 1.718.273 2.42.768l1.632-1.631c-1.265-.741-2.62-1.138-4.052-1.138-4.222 0-6.79 3.23-7.944 5.156a2.111 2.111 0 0 0-.002 2.187c.537.897 1.429 2.11 2.653 3.141Zm8.001-3.797a2.746 2.746 0 0 1-2.272 2.274.75.75 0 0 0 .228 1.482 4.203 4.203 0 0 0 3.526-3.527.75.75 0 0 0-.627-.856.756.756 0 0 0-.855.627Z"/></svg>
